src/main/resources/organization/toolbox.svg

<svg width="264" height="72" viewBox="0 0 264 72" fill="none" xmlns="http://www.w3.org/2000/svg">
    <path d="M66.1895 27.9084L68.8542 24.947C69.9534 26.1536 71.0248 26.8665 72.3706 26.8665C73.964 26.8665 74.9532 25.907 74.9532 23.6858V11.3196H79.2939V23.8777C79.2939 26.1536 78.6345 27.8538 77.4804 29.0051C76.2995 30.1843 74.5686 30.7878 72.4807 30.7878C70.0504 30.8504 67.7278 29.7874 66.1895 27.9084H66.1895Z"
          fill="#19191C"/>
    <path fill-rule="evenodd" clip-rule="evenodd"
          d="M80.3921 23.1921L80.3921 23.2473C80.3921 27.7439 83.661 30.8425 88.084 30.8425C90.4111 30.9292 92.6423 29.9124 94.1008 28.1003L91.7105 25.989C90.7837 26.968 89.4886 27.515 88.1392 27.4973C86.3733 27.6132 84.8112 26.3635 84.5401 24.6179L94.7871 24.6179C94.815 24.2341 94.8424 23.8503 94.8424 23.5212C94.8424 19.3533 92.5896 15.5422 87.672 15.5422C83.3866 15.5422 80.3921 18.9968 80.3921 23.1921ZM87.6716 18.8874C89.4298 18.8874 90.5286 20.1487 90.7761 22.0134L84.4848 22.0134C84.8146 20.1213 85.9407 18.8874 87.6716 18.8874Z"
          fill="#19191C"/>
    <path d="M96.5751 26.3455V19.3811H94.8169V15.8162H96.5751V12.0598H100.751V15.8162H104.212V19.3811H100.751V25.6599C100.751 26.6199 101.163 27.0857 102.097 27.0857C102.817 27.089 103.526 26.91 104.157 26.5652V29.9104C103.16 30.4973 102.018 30.7918 100.861 30.76C98.3055 30.76 96.5751 29.7458 96.5751 26.3455Z"
          fill="#19191C"/>
    <path fill-rule="evenodd" clip-rule="evenodd"
          d="M105.668 11.3196H114.597C116.795 11.3196 118.525 11.9226 119.624 13.0193C120.499 13.8766 120.977 15.059 120.943 16.2825V16.3372C120.99 18.0934 120.001 19.7141 118.416 20.4778C120.641 21.3279 122.014 22.6165 122.014 25.1941V25.2488C122.014 28.7586 119.157 30.5134 114.817 30.5134H105.668V11.3196ZM116.74 16.9954C116.74 15.7341 115.751 15.0212 113.965 15.0212H109.79V19.0793H113.691C115.558 19.0793 116.74 18.4758 116.74 17.0501L116.74 16.9954ZM109.79 22.5891H114.679C116.85 22.5891 117.811 23.384 117.811 24.6731V24.7278C117.811 26.1536 116.685 26.8118 114.817 26.8118H109.79V22.5891Z"
          fill="#19191C"/>
    <path d="M123.005 15.816H127.181V18.7774C128.033 16.7486 129.406 15.4322 131.879 15.542V19.9019H131.659C128.884 19.9019 127.181 21.5743 127.181 25.084V30.5132H123.005V15.816Z"
          fill="#19191C"/>
    <path fill-rule="evenodd" clip-rule="evenodd"
          d="M130.863 26.236L130.863 26.2907C130.863 29.1969 133.143 30.7877 135.918 30.7877C137.606 30.86 139.238 30.1762 140.369 28.923L140.369 30.5133L144.407 30.5133L144.407 21.9855C144.407 20.0114 143.913 18.3937 142.814 17.297C141.77 16.255 140.121 15.6515 137.841 15.6515C135.871 15.607 133.917 16.0103 132.127 16.8307L133.171 20.0114C134.462 19.4877 135.843 19.2178 137.237 19.2165C139.325 19.2165 140.396 20.1759 140.396 21.9035L140.396 22.1501C139.241 21.7402 138.023 21.5361 136.797 21.547C133.308 21.547 130.863 23.0275 130.863 26.236ZM140.451 24.5905L140.451 25.3308C140.451 26.8391 139.133 27.9084 137.182 27.9084C135.836 27.9084 134.902 27.2502 134.902 26.1262L134.902 26.0715C134.902 24.7551 136.001 24.0422 137.787 24.0422C138.704 24.0345 139.612 24.2214 140.451 24.5905Z"
          fill="#19191C"/>
    <path fill-rule="evenodd" clip-rule="evenodd"
          d="M150.424 10.4968H146.029V14.1985H150.424V10.4968ZM150.314 15.8162H146.138V30.5134H150.314V15.8162Z" fill="#19191C"/>
    <path d="M152.183 15.8161H156.358V17.9001C157.32 16.6663 158.556 15.5422 160.671 15.5422C163.831 15.5422 165.671 17.6262 165.671 20.9988V30.5134H161.496V22.3147C161.496 20.3406 160.561 19.3259 158.968 19.3259C157.375 19.3259 156.358 20.3406 156.358 22.3147V30.5134H152.183L152.183 15.8161Z"
          fill="#19191C"/>
    <path d="M166.084 28.5667L167.87 25.8245C169.203 26.8672 170.823 27.4794 172.513 27.5794C173.722 27.5794 174.271 27.1409 174.271 26.4827V26.428C174.271 25.5232 172.842 25.2215 171.222 24.7278C169.162 24.1248 166.826 23.1648 166.826 20.3133V20.2585C166.826 17.2698 169.244 15.5969 172.211 15.5969C174.168 15.6253 176.075 16.2155 177.705 17.2971L176.112 20.176C174.656 19.3259 173.2 18.8049 172.128 18.8049C171.112 18.8049 170.59 19.2439 170.59 19.8196V19.8743C170.59 20.697 171.991 21.0808 173.585 21.6292C175.645 22.3147 178.035 23.302 178.035 25.989V26.0442C178.035 29.3069 175.59 30.7879 172.403 30.7879C170.108 30.7698 167.884 29.9882 166.084 28.5667H166.084Z"
          fill="#19191C"/>
    <path d="M76.1498 44.7444H67.2275V38.8074H91.5232V44.7444H82.601V68.074H76.1498V44.7444Z" fill="#19191C"/>
    <path fill-rule="evenodd" clip-rule="evenodd"
          d="M90.7681 53.4407V53.5242C90.7681 61.8445 97.2609 68.5759 106.309 68.5759C115.357 68.5759 121.933 61.761 121.933 53.4407V53.3572C121.933 45.0374 115.44 38.3059 106.392 38.3059C97.3445 38.3059 90.7681 45.1208 90.7681 53.4407ZM115.189 53.4407V53.5242H115.189C115.189 58.5418 111.587 62.6389 106.392 62.6389C101.199 62.6389 97.5123 58.4578 97.5123 53.4407V53.3572C97.5123 48.3401 101.114 44.2429 106.309 44.2429C111.503 44.2429 115.189 48.4236 115.189 53.4407Z"
          fill="#19191C"/>
    <path fill-rule="evenodd" clip-rule="evenodd"
          d="M123.231 53.4407V53.5242C123.231 61.8445 129.724 68.5759 138.772 68.5759C147.82 68.5759 154.397 61.761 154.397 53.4407V53.3572C154.397 45.0374 147.904 38.3059 138.856 38.3059C129.808 38.3059 123.231 45.1208 123.231 53.4407ZM147.653 53.4407V53.5242C147.653 58.5418 144.05 62.6389 138.856 62.6389C133.662 62.6389 129.976 58.4578 129.976 53.4407V53.3572C129.976 48.3401 133.578 44.2429 138.772 44.2429C143.966 44.2429 147.653 48.4236 147.653 53.4407Z"
          fill="#19191C"/>
    <path d="M156.993 38.8074H163.443V62.2205H178.063V68.074H156.993V38.8074Z" fill="#19191C"/>
    <path fill-rule="evenodd" clip-rule="evenodd"
          d="M179.779 38.8074H193.393C196.744 38.8074 199.383 39.7273 201.059 41.3997C202.393 42.7072 203.121 44.5099 203.069 46.3752V46.4587C203.069 49.7615 201.31 51.6013 199.216 52.7717C202.608 54.0681 204.703 56.033 204.703 59.9632V60.0466C204.703 65.3982 200.346 68.074 193.728 68.074H179.779V38.8074ZM196.661 47.4622C196.661 45.5388 195.153 44.4519 192.43 44.4519H186.063V50.6394H192.011C194.859 50.6394 196.66 49.72 196.66 47.5457L196.661 47.4622ZM186.062 55.991H193.518H193.518C196.827 55.991 198.294 57.2039 198.294 59.1687V59.2522C198.294 61.4265 196.576 62.4299 193.728 62.4299H186.062V55.991Z"
          fill="#19191C"/>
    <path fill-rule="evenodd" clip-rule="evenodd"
          d="M205.58 53.4407V53.5242C205.58 61.8445 212.073 68.5759 221.121 68.5759C230.169 68.5759 236.745 61.761 236.745 53.4407V53.3572C236.745 45.0374 230.252 38.3059 221.205 38.3059C212.157 38.3059 205.58 45.1208 205.58 53.4407ZM230.001 53.4407V53.5242H230.001C230.001 58.5418 226.399 62.6389 221.204 62.6389C216.011 62.6389 212.324 58.4578 212.324 53.4407V53.3572C212.324 48.3401 215.926 44.2429 221.121 44.2429C226.315 44.2429 230.001 48.4236 230.001 53.4407Z"
          fill="#19191C"/>
    <path d="M262.675 38.8074L252.873 53.1062L263.093 68.074H255.554L248.977 58.0398L242.359 68.074H235.028L245.249 53.1902L235.447 38.8074H242.987L249.102 48.2981L255.344 38.8074H262.675Z"
          fill="#19191C"/>
    <path d="M26.5527 64.2181L53.1047 48.8931V18.2676L26.5527 33.5926V64.2181Z" fill="#19191C"/>
    <path d="M43.2922 48.9396L31.7212 55.5791V51.3456L43.2922 44.7056V48.9396Z" fill="white"/>
    <path d="M26.552 3L0 18.2675L0.000500952 18.268L0 18.2675V48.893L26.552 64.218V33.5925L53.1045 18.2675L26.552 3Z" fill="url(#paint0_linear)"/>
    <defs>
        <linearGradient id="paint0_linear" x1="12.1904" y1="77.7624" x2="67.4608" y2="56.1979" gradientUnits="userSpaceOnUse">
            <stop offset="0.04301" stop-color="#FF8618"/>
            <stop offset="0.38172" stop-color="#FF246E"/>
            <stop offset="0.98925" stop-color="#AF1DF5"/>
        </linearGradient>
    </defs>
</svg>

<svg xmlns="http://www.w3.org/2000/svg" width="264" height="72" fill="none"><path fill="#19191C" d="m66.19 27.908 2.664-2.961c1.1 1.207 2.17 1.92 3.517 1.92 1.593 0 2.582-.96 2.582-3.181V11.32h4.34v12.558c0 2.276-.659 3.976-1.813 5.127-1.18 1.18-2.911 1.783-5 1.783-2.43.062-4.752-1-6.29-2.88"/><path fill="#19191C" fill-rule="evenodd" d="M80.392 23.192v.055c0 4.497 3.269 7.596 7.692 7.596a7.37 7.37 0 0 0 6.017-2.743l-2.39-2.111a4.83 4.83 0 0 1-3.572 1.508 3.414 3.414 0 0 1-3.599-2.88h10.247c.028-.383.055-.767.055-1.096 0-4.168-2.252-7.979-7.17-7.979-4.285 0-7.28 3.455-7.28 7.65m7.28-4.305c1.758 0 2.857 1.262 3.104 3.126h-6.291c.33-1.892 1.456-3.126 3.187-3.126" clip-rule="evenodd"/><path fill="#19191C" d="M96.575 26.346V19.38h-1.758v-3.565h1.758V12.06h4.176v3.756h3.461v3.565h-3.461v6.279c0 .96.412 1.426 1.346 1.426a4.26 4.26 0 0 0 2.06-.52v3.344a6.16 6.16 0 0 1-3.296.85c-2.556 0-4.286-1.014-4.286-4.414"/><path fill="#19191C" fill-rule="evenodd" d="M105.668 11.32h8.929c2.198 0 3.928.603 5.027 1.7a4.4 4.4 0 0 1 1.319 3.262v.055a4.46 4.46 0 0 1-2.527 4.14c2.225.85 3.598 2.14 3.598 4.717v.055c0 3.51-2.857 5.264-7.197 5.264h-9.149zm11.072 5.675c0-1.26-.989-1.974-2.775-1.974h-4.175v4.058h3.901c1.867 0 3.049-.603 3.049-2.029zm-6.95 5.594h4.889c2.171 0 3.132.795 3.132 2.084v.055c0 1.426-1.126 2.084-2.994 2.084h-5.027z" clip-rule="evenodd"/><path fill="#19191C" d="M123.005 15.816h4.176v2.961c.852-2.028 2.225-3.345 4.698-3.235v4.36h-.22c-2.775 0-4.478 1.672-4.478 5.182v5.43h-4.176z"/><path fill="#19191C" fill-rule="evenodd" d="M130.863 26.236v.055c0 2.906 2.28 4.497 5.055 4.497a5.67 5.67 0 0 0 4.451-1.865v1.59h4.038v-8.528c0-1.974-.494-3.591-1.593-4.688-1.044-1.042-2.693-1.646-4.973-1.646a13 13 0 0 0-5.714 1.18l1.044 3.18a10.9 10.9 0 0 1 4.066-.794c2.088 0 3.159.959 3.159 2.687v.246a10.5 10.5 0 0 0-3.599-.603c-3.489 0-5.934 1.48-5.934 4.689m9.588-1.646v.74c0 1.51-1.318 2.578-3.269 2.578-1.346 0-2.28-.658-2.28-1.782v-.055c0-1.316 1.099-2.029 2.885-2.029a6.5 6.5 0 0 1 2.664.548m9.973-14.093h-4.395v3.701h4.395zm-.11 5.32h-4.176v14.696h4.176z" clip-rule="evenodd"/><path fill="#19191C" d="M152.183 15.816h4.175V17.9c.962-1.234 2.198-2.358 4.313-2.358 3.16 0 5 2.084 5 5.457v9.514h-4.175v-8.198c0-1.974-.935-2.99-2.528-2.99s-2.61 1.016-2.61 2.99v8.198h-4.175zm13.901 12.751 1.786-2.742a8.34 8.34 0 0 0 4.643 1.754c1.209 0 1.758-.438 1.758-1.096v-.055c0-.905-1.429-1.207-3.049-1.7-2.06-.603-4.396-1.563-4.396-4.415v-.054c0-2.99 2.418-4.662 5.385-4.662 1.957.028 3.864.618 5.494 1.7l-1.593 2.879c-1.456-.85-2.912-1.371-3.984-1.371-1.016 0-1.538.439-1.538 1.015v.054c0 .823 1.401 1.207 2.995 1.755 2.06.686 4.45 1.673 4.45 4.36v.055c0 3.263-2.445 4.744-5.632 4.744a10.33 10.33 0 0 1-6.319-2.221M76.15 44.744h-8.922v-5.937h24.295v5.937h-8.922v23.33H76.15z"/><path fill="#19191C" fill-rule="evenodd" d="M90.768 53.44v.084c0 8.32 6.493 15.052 15.541 15.052s15.624-6.815 15.624-15.135v-.084c0-8.32-6.493-15.051-15.541-15.051S90.768 45.12 90.768 53.44m24.421 0v.084c0 5.018-3.602 9.115-8.797 9.115-5.193 0-8.88-4.181-8.88-9.198v-.084c0-5.017 3.602-9.114 8.797-9.114 5.194 0 8.88 4.18 8.88 9.198m8.042-.001v.084c0 8.32 6.493 15.052 15.541 15.052s15.625-6.815 15.625-15.135v-.084c0-8.32-6.493-15.051-15.541-15.051s-15.625 6.815-15.625 15.135m24.422 0v.084c0 5.018-3.603 9.115-8.797 9.115s-8.88-4.181-8.88-9.198v-.084c0-5.017 3.602-9.114 8.796-9.114s8.881 4.18 8.881 9.198" clip-rule="evenodd"/><path fill="#19191C" d="M156.993 38.807h6.45v23.414h14.62v5.853h-21.07z"/><path fill="#19191C" fill-rule="evenodd" d="M179.779 38.807h13.614c3.351 0 5.99.92 7.666 2.593a6.7 6.7 0 0 1 2.01 4.975v.084c0 3.302-1.759 5.142-3.853 6.313 3.392 1.296 5.487 3.261 5.487 7.191v.084c0 5.351-4.357 8.027-10.975 8.027h-13.949zm16.882 8.655c0-1.923-1.508-3.01-4.231-3.01h-6.367v6.187h5.948c2.848 0 4.649-.919 4.649-3.093zm-10.599 8.529h7.456c3.309 0 4.776 1.213 4.776 3.178v.083c0 2.174-1.718 3.178-4.566 3.178h-7.666zm19.518-2.551v.084c0 8.32 6.493 15.052 15.541 15.052s15.624-6.815 15.624-15.135v-.084c0-8.32-6.493-15.051-15.54-15.051-9.048 0-15.625 6.815-15.625 15.135m24.421 0v.084c0 5.018-3.602 9.115-8.797 9.115-5.193 0-8.88-4.181-8.88-9.198v-.084c0-5.017 3.602-9.114 8.797-9.114 5.194 0 8.88 4.18 8.88 9.198" clip-rule="evenodd"/><path fill="#19191C" d="m262.675 38.807-9.802 14.3 10.22 14.967h-7.539l-6.577-10.034-6.618 10.034h-7.331l10.221-14.884-9.802-14.383h7.54l6.115 9.491 6.242-9.49zM26.553 64.218l26.552-15.325V18.268L26.553 33.593z"/><path fill="#fff" d="m43.292 48.94-11.57 6.64v-4.234l11.57-6.64z"/><path fill="url(#a)" d="M26.552 3 0 18.267v30.626l26.552 15.325V33.592l26.553-15.324z"/><defs><linearGradient id="a" x1="12.19" x2="67.461" y1="77.762" y2="56.198" gradientUnits="userSpaceOnUse"><stop offset=".043" stop-color="#FF8618"/><stop offset=".382" stop-color="#FF246E"/><stop offset=".989" stop-color="#AF1DF5"/></linearGradient></defs></svg>
